%
(Header)
(Generated by gcodetools from Inkscape.)
(Using default header. To add your own header create file "header" in the output dir.)
M3
(Header end.)
G21 (All units in mm)

(Start cutting path id: path39)
(Change tool to Default tool)

G00 Z0.300000
G00 X136.182922 Y162.501687

G01 Z-0.012500 F100.0(Penetrate)
G01 X132.605723 Y162.294852 Z-0.012500 F400.000000
G01 X122.499031 Y157.815136 Z-0.012500
G01 X118.514474 Y150.295307 Z-0.012500
G01 X117.934309 Y141.331931 Z-0.012500
G01 X118.271010 Y135.953413 Z-0.012500
G01 X114.819517 Y119.009772 Z-0.012500
G01 X111.215727 Y114.175490 Z-0.012500
G01 X99.087359 Y89.999795 Z-0.012500
G01 X98.943387 Y84.055088 Z-0.012500
G01 X99.072618 Y82.916255 Z-0.012500
G01 X98.486244 Y82.300623 Z-0.012500
G01 X96.799009 Y80.224834 Z-0.012500
G01 X91.918233 Y76.602455 Z-0.012500
G01 X88.089889 Y74.505885 Z-0.012500
G01 X86.972741 Y72.996356 Z-0.012500
G01 X86.494349 Y71.729025 Z-0.012500
G01 X86.754321 Y67.389533 Z-0.012500
G01 X87.096900 Y64.408547 Z-0.012500
G01 X86.793484 Y62.144047 Z-0.012500
G01 X92.135235 Y52.863617 Z-0.012500
G01 X95.038308 Y52.523184 Z-0.012500
G01 X104.654999 Y50.702133 Z-0.012500
G01 X109.530650 Y48.782392 Z-0.012500
G01 X123.900852 Y51.081269 Z-0.012500
G01 X124.693645 Y52.240367 Z-0.012500
G01 X124.964958 Y52.760075 Z-0.012500
G01 X125.487053 Y52.815850 Z-0.012500
G01 X129.745215 Y53.464226 Z-0.012500
G01 X135.752110 Y54.358204 Z-0.012500
G01 X142.080185 Y54.065548 Z-0.012500
G01 X148.448088 Y53.608794 Z-0.012500
G01 X149.545822 Y53.622737 Z-0.012500
G01 X149.729157 Y53.105597 Z-0.012500
G01 X153.938228 Y48.273282 Z-0.012500
G01 X157.469593 Y47.087878 Z-0.012500
G01 X159.320864 Y47.099626 Z-0.012500
G01 X161.923493 Y47.434103 Z-0.012500
G01 X170.838700 Y53.199494 Z-0.012500
G01 X174.525976 Y56.428334 Z-0.012500
G01 X179.654294 Y59.213728 Z-0.012500
G01 X184.742754 Y62.257283 Z-0.012500
G01 X183.047704 Y71.106254 Z-0.012500
G01 X180.657358 Y76.082451 Z-0.012500
G01 X178.450648 Y80.807654 Z-0.012500
G01 X176.382418 Y82.188012 Z-0.012500
G01 X176.286004 Y83.182967 Z-0.012500
G01 X177.100734 Y88.982278 Z-0.012500
G01 X175.381846 Y98.521433 Z-0.012500
G01 X164.046647 Y116.090658 Z-0.012500
G01 X155.630536 Y128.874254 Z-0.012500
G01 X154.946389 Y136.419226 Z-0.012500
G01 X153.967900 Y147.630931 Z-0.012500
G01 X151.525188 Y154.559274 Z-0.012500
G01 X148.591925 Y158.415886 Z-0.012500
G01 X139.670726 Y162.382424 Z-0.012500
G01 X136.182922 Y162.501659 Z-0.012500
G01 X136.182922 Y162.501687 Z-0.012500
G00 Z0.300000

(End cutting path id: path39)


(Start cutting path id: path39)
(Change tool to Default tool)

G00 Z0.300000
G00 X139.362322 Y146.579663

G01 Z-0.012500 F100.0(Penetrate)
G01 X145.495992 Y138.309747 Z-0.012500 F400.000000
G01 X144.186411 Y134.406725 Z-0.012500
G01 X143.756907 Y133.890355 Z-0.012500
G01 X140.890671 Y134.937777 Z-0.012500
G01 X141.213870 Y135.430348 Z-0.012500
G01 X142.006086 Y138.332758 Z-0.012500
G01 X140.806496 Y141.450360 Z-0.012500
G01 X139.340171 Y142.088017 Z-0.012500
G01 X136.643171 Y137.969633 Z-0.012500
G01 X136.517914 Y136.987893 Z-0.012500
G01 X133.768774 Y137.831581 Z-0.012500
G01 X133.522710 Y139.209428 Z-0.012500
G01 X134.342621 Y143.161810 Z-0.012500
G01 X135.655824 Y144.913256 Z-0.012500
G01 X139.362322 Y146.579663 Z-0.012500
G01 X139.362322 Y146.579663 Z-0.012500
G00 Z0.300000

(End cutting path id: path39)


(Start cutting path id: path39)
(Change tool to Default tool)

G00 Z0.300000
G00 X124.412053 Y145.254636

G01 Z-0.012500 F100.0(Penetrate)
G01 X125.645452 Y145.016982 Z-0.012500 F400.000000
G01 X128.370691 Y142.079087 Z-0.012500
G01 X129.013449 Y139.084814 Z-0.012500
G01 X129.048345 Y137.738489 Z-0.012500
G01 X128.202470 Y137.400673 Z-0.012500
G01 X127.124846 Y136.901721 Z-0.012500
G01 X126.834205 Y136.740906 Z-0.012500
G01 X126.698011 Y137.711842 Z-0.012500
G01 X124.613718 Y141.030911 Z-0.012500
G01 X122.792983 Y138.045964 Z-0.012500
G01 X123.941752 Y134.863585 Z-0.012500
G01 X124.234608 Y134.558405 Z-0.012500
G01 X123.558291 Y134.058136 Z-0.012500
G01 X122.773329 Y133.494494 Z-0.012500
G01 X121.522163 Y134.953632 Z-0.012500
G01 X120.606477 Y137.450625 Z-0.012500
G01 X120.487866 Y140.692051 Z-0.012500
G01 X123.202383 Y144.993432 Z-0.012500
G01 X124.412077 Y145.254636 Z-0.012500
G01 X124.412053 Y145.254636 Z-0.012500
G00 Z0.300000

(End cutting path id: path39)


(Start cutting path id: path39)
(Change tool to Default tool)

G00 Z0.300000
G00 X131.455223 Y136.888317

G01 Z-0.012500 F100.0(Penetrate)
G01 X136.910399 Y135.364999 Z-0.012500 F400.000000
G01 X140.799541 Y133.756594 Z-0.012500
G01 X144.608667 Y132.026387 Z-0.012500
G01 X145.153742 Y128.826718 Z-0.012500
G01 X140.952634 Y125.515463 Z-0.012500
G01 X137.880129 Y124.015296 Z-0.012500
G01 X133.661875 Y122.084797 Z-0.012500
G01 X130.074330 Y121.947306 Z-0.012500
G01 X126.187646 Y124.147897 Z-0.012500
G01 X124.202292 Y125.528236 Z-0.012500
G01 X120.994776 Y128.479240 Z-0.012500
G01 X121.289405 Y130.885790 Z-0.012500
G01 X123.155040 Y132.375963 Z-0.012500
G01 X125.570266 Y134.283567 Z-0.012500
G01 X128.324951 Y136.223271 Z-0.012500
G01 X131.455223 Y136.888317 Z-0.012500
G01 X131.455223 Y136.888317 Z-0.012500
G00 Z0.300000

(End cutting path id: path39)


(Start cutting path id: path39)
(Change tool to Default tool)

G00 Z0.300000
G00 X133.643749 Y135.539416

G01 Z-0.012500 F100.0(Penetrate)
G01 X132.805713 Y135.332104 Z-0.012500 F400.000000
G01 X132.700546 Y134.888261 Z-0.012500
G01 X133.552417 Y134.366785 Z-0.012500
G01 X134.470603 Y134.039618 Z-0.012500
G01 X135.213931 Y134.472331 Z-0.012500
G01 X133.643749 Y135.539416 Z-0.012500
G01 X133.643749 Y135.539416 Z-0.012500
G00 Z0.300000

(End cutting path id: path39)


(Start cutting path id: path39)
(Change tool to Default tool)

G00 Z0.300000
G00 X129.129888 Y135.471411

G01 Z-0.012500 F100.0(Penetrate)
G01 X127.670469 Y134.746358 Z-0.012500 F400.000000
G01 X127.934563 Y134.087016 Z-0.012500
G01 X129.097811 Y134.236466 Z-0.012500
G01 X129.797826 Y134.516852 Z-0.012500
G01 X130.185941 Y135.077588 Z-0.012500
G01 X129.129888 Y135.471411 Z-0.012500
G01 X129.129888 Y135.471411 Z-0.012500
G00 Z0.300000

(End cutting path id: path39)


(Start cutting path id: path39)
(Change tool to Default tool)

G00 Z0.300000
G00 X142.413877 Y131.458749

G01 Z-0.012500 F100.0(Penetrate)
G01 X141.408979 Y130.648614 Z-0.012500 F400.000000
G01 X135.306609 Y126.807631 Z-0.012500
G01 X131.416981 Y125.788769 Z-0.012500
G01 X128.133273 Y126.178880 Z-0.012500
G01 X123.534724 Y129.161387 Z-0.012500
G01 X122.033867 Y130.387549 Z-0.012500
G01 X121.689682 Y129.813476 Z-0.012500
G01 X122.854583 Y128.173670 Z-0.012500
G01 X128.864119 Y124.867049 Z-0.012500
G01 X134.426973 Y125.306466 Z-0.012500
G01 X139.722073 Y127.862034 Z-0.012500
G01 X143.116453 Y130.840247 Z-0.012500
G01 X142.413877 Y131.458749 Z-0.012500
G01 X142.413877 Y131.458749 Z-0.012500
G00 Z0.300000

(End cutting path id: path39)


(Start cutting path id: path39)
(Change tool to Default tool)

G00 Z0.300000
G00 X144.625157 Y123.333544

G01 Z-0.012500 F100.0(Penetrate)
G01 X145.026345 Y122.361697 Z-0.012500 F400.000000
G01 X151.532630 Y107.880004 Z-0.012500
G01 X157.539590 Y94.648956 Z-0.012500
G01 X158.609915 Y91.742414 Z-0.012500
G01 X158.782977 Y91.198421 Z-0.012500
G01 X157.484457 Y89.843712 Z-0.012500
G01 X150.901357 Y80.607417 Z-0.012500
G01 X149.951343 Y74.253783 Z-0.012500
G01 X148.215645 Y65.276799 Z-0.012500
G01 X143.725067 Y62.823367 Z-0.012500
G01 X137.578016 Y61.257431 Z-0.012500
G01 X131.644915 Y61.261166 Z-0.012500
G01 X128.268535 Y62.301041 Z-0.012500
G01 X124.322467 Y64.755266 Z-0.012500
G01 X124.042567 Y65.065957 Z-0.012500
G01 X124.773999 Y65.773215 Z-0.012500
G01 X126.367524 Y69.611434 Z-0.012500
G01 X121.227410 Y77.966654 Z-0.012500
G01 X114.752519 Y82.841804 Z-0.012500
G01 X111.939427 Y84.830495 Z-0.012500
G01 X112.201420 Y85.189760 Z-0.012500
G01 X113.505249 Y89.895420 Z-0.012500
G01 X118.742217 Y105.519249 Z-0.012500
G01 X123.815327 Y119.576179 Z-0.012500
G01 X124.216037 Y121.226250 Z-0.012500
G01 X125.131295 Y120.652140 Z-0.012500
G01 X132.483891 Y118.475263 Z-0.012500
G01 X140.997706 Y121.690586 Z-0.012500
G01 X144.625157 Y123.333544 Z-0.012500
G01 X144.625157 Y123.333544 Z-0.012500
G00 Z0.300000

(End cutting path id: path39)


(Start cutting path id: path39)
(Change tool to Default tool)

G00 Z0.300000
G00 X156.797919 Y111.752039

G01 Z-0.012500 F100.0(Penetrate)
G01 X158.424615 Y110.600157 Z-0.012500 F400.000000
G01 X161.981203 Y106.389119 Z-0.012500
G01 X162.280579 Y105.620133 Z-0.012500
G01 X161.985071 Y105.434673 Z-0.012500
G01 X161.761474 Y105.251194 Z-0.012500
G01 X161.409151 Y105.767255 Z-0.012500
G01 X159.339074 Y108.666439 Z-0.012500
G01 X158.028595 Y110.051075 Z-0.012500
G01 X156.883086 Y111.282818 Z-0.012500
G01 X156.797919 Y111.752039 Z-0.012500
G01 X156.797919 Y111.752039 Z-0.012500
G00 Z0.300000

(End cutting path id: path39)


(Start cutting path id: path39)
(Change tool to Default tool)

G00 Z0.300000
G00 X112.882642 Y109.266009

G01 Z-0.012500 F100.0(Penetrate)
G01 X111.213602 Y105.346662 Z-0.012500 F400.000000
G01 X109.524755 Y101.806517 Z-0.012500
G01 X109.259897 Y101.244134 Z-0.012500
G01 X108.587509 Y101.644970 Z-0.012500
G01 X110.922363 Y106.233330 Z-0.012500
G01 X112.882642 Y109.266009 Z-0.012500
G01 X112.882642 Y109.266009 Z-0.012500
G00 Z0.300000

(End cutting path id: path39)


(Start cutting path id: path39)
(Change tool to Default tool)

G00 Z0.300000
G00 X165.022946 Y91.268059

G01 Z-0.012500 F100.0(Penetrate)
G01 X165.032452 Y90.863083 Z-0.012500 F400.000000
G01 X164.548591 Y90.525588 Z-0.012500
G01 X164.706022 Y90.926277 Z-0.012500
G01 X165.022946 Y91.268059 Z-0.012500
G00 Z0.300000

(End cutting path id: path39)


(Start cutting path id: path39)
(Change tool to Default tool)

G00 Z0.300000
G00 X102.168045 Y81.628055

G01 Z-0.012500 F100.0(Penetrate)
G01 X103.365829 Y81.606931 Z-0.012500 F400.000000
G01 X105.189588 Y81.304094 Z-0.012500
G01 X108.016415 Y78.590882 Z-0.012500
G01 X110.474171 Y74.830837 Z-0.012500
G01 X117.594670 Y64.795938 Z-0.012500
G01 X122.871851 Y56.315266 Z-0.012500
G01 X121.953356 Y53.403772 Z-0.012500
G01 X118.177909 Y50.865366 Z-0.012500
G01 X114.015454 Y50.645751 Z-0.012500
G01 X107.754837 Y52.431401 Z-0.012500
G01 X95.739765 Y55.204267 Z-0.012500
G01 X90.383523 Y56.182651 Z-0.012500
G01 X89.102325 Y58.177978 Z-0.012500
G01 X89.618788 Y61.632691 Z-0.012500
G01 X89.852676 Y64.443567 Z-0.012500
G01 X89.601677 Y67.471674 Z-0.012500
G01 X89.441363 Y71.514220 Z-0.012500
G01 X92.821467 Y73.985611 Z-0.012500
G01 X99.921628 Y79.404081 Z-0.012500
G01 X101.751219 Y81.314928 Z-0.012500
G01 X102.168045 Y81.628055 Z-0.012500
G00 Z0.300000

(End cutting path id: path39)


(Start cutting path id: path39)
(Change tool to Default tool)

G00 Z0.300000
G00 X157.158335 Y81.578326

G01 Z-0.012500 F100.0(Penetrate)
G01 X157.335154 Y81.153026 Z-0.012500 F400.000000
G01 X159.991760 Y77.376271 Z-0.012500
G01 X162.317330 Y76.320909 Z-0.012500
G01 X165.563915 Y76.397445 Z-0.012500
G01 X170.893517 Y78.969486 Z-0.012500
G01 X173.826087 Y79.788071 Z-0.012500
G01 X175.486684 Y79.561190 Z-0.012500
G01 X177.530264 Y76.350630 Z-0.012500
G01 X181.422246 Y68.628354 Z-0.012500
G01 X182.677417 Y64.350673 Z-0.012500
G01 X178.195361 Y61.626927 Z-0.012500
G01 X169.465300 Y55.685394 Z-0.012500
G01 X167.000122 Y53.536664 Z-0.012500
G01 X160.851190 Y50.146151 Z-0.012500
G01 X157.166296 Y49.928328 Z-0.012500
G01 X154.824423 Y51.074334 Z-0.012500
G01 X152.270556 Y55.026618 Z-0.012500
G01 X153.576665 Y63.444474 Z-0.012500
G01 X155.313592 Y74.366807 Z-0.012500
G01 X156.890314 Y81.243595 Z-0.012500
G01 X157.158335 Y81.578326 Z-0.012500
G00 Z0.300000

(End cutting path id: path39)


(Footer)
M5
G00 X0.0000 Y0.0000
M2
(Using default footer. To add your own footer create file "footer" in the output dir.)
(end)
%