%
(Header)
(Generated by gcodetools from Inkscape.)
(Using default header. To add your own header create file "header" in the output dir.)
M3
(Header end.)
G21 (All units in mm)

(Start cutting path id: path1426)
(Change tool to Default tool)

G00 Z0.300000
G00 X18.221436 Y12.666280

G01 Z-0.012500 F100.0(Penetrate)
G01 X24.174628 Y35.723480 Z-0.012500 F400.000000
G01 X27.066425 Y41.608310 Z-0.012500
G01 X36.885850 Y48.786450 Z-0.012500
G01 X38.464550 Y48.532210 Z-0.012500
G01 X38.855771 Y49.468540 Z-0.012500
G01 X38.829621 Y51.280100 Z-0.012500
G01 X38.189012 Y52.155340 Z-0.012500
G01 X35.496152 Y51.084200 Z-0.012500
G01 X32.473963 Y50.092020 Z-0.012500
G01 X33.204300 Y53.921460 Z-0.012500
G01 X34.434939 Y56.010460 Z-0.012500
G01 X31.722960 Y56.046960 Z-0.012500
G01 X25.439106 Y57.035630 Z-0.012500
G01 X28.137088 Y60.506650 Z-0.012500
G01 X29.691968 Y62.111120 Z-0.012500
G01 X24.059808 Y65.037850 Z-0.012500
G01 X18.427648 Y68.725040 Z-0.012500
G01 X21.879469 Y71.337600 Z-0.012500
G01 X27.811938 Y74.909470 Z-0.012500
G01 X20.271786 Y78.725790 Z-0.012500
G01 X12.739106 Y83.112120 Z-0.012500
G01 X14.128169 Y84.133940 Z-0.012500
G01 X21.338064 Y87.205350 Z-0.012500
G01 X27.886501 Y90.134950 Z-0.012500
G01 X28.614106 Y90.419030 Z-0.012500
G01 X24.248481 Y97.583080 Z-0.012500
G01 X19.882856 Y104.973050 Z-0.012500
G01 X22.734666 Y105.105410 Z-0.012500
G01 X34.269736 Y103.484470 Z-0.012500
G01 X36.187958 Y107.717810 Z-0.012500
G01 X34.942975 Y120.650510 Z-0.012500
G01 X35.427126 Y124.378860 Z-0.012500
G01 X40.388063 Y121.065480 Z-0.012500
G01 X51.907365 Y110.169480 Z-0.012500
G01 X53.718221 Y108.048710 Z-0.012500
G01 X54.915717 Y110.562250 Z-0.012500
G01 X60.183552 Y121.939160 Z-0.012500
G01 X60.900645 Y122.269890 Z-0.012500
G01 X62.178270 Y120.042740 Z-0.012500
G01 X64.862021 Y105.720030 Z-0.012500
G01 X64.862021 Y102.981090 Z-0.012500
G01 X69.062326 Y104.423410 Z-0.012500
G01 X73.957117 Y105.865720 Z-0.012500
G01 X73.833692 Y102.874660 Z-0.012500
G01 X71.450296 Y96.891720 Z-0.012500
G01 X69.884809 Y92.812500 Z-0.012500
G01 X70.428504 Y91.689380 Z-0.012500
G01 X72.671240 Y89.886080 Z-0.012500
G01 X75.436985 Y89.035330 Z-0.012500
G01 X76.503687 Y88.008740 Z-0.012500
G01 X75.246916 Y85.987610 Z-0.012500
G01 X73.260959 Y84.297760 Z-0.012500
G01 X72.797938 Y82.848720 Z-0.012500
G01 X71.327188 Y74.364220 Z-0.012500
G01 X70.708153 Y73.782670 Z-0.012500
G01 X71.408225 Y72.864820 Z-0.012500
G01 X72.718492 Y71.714980 Z-0.012500
G01 X71.647210 Y68.774480 Z-0.012500
G01 X69.507088 Y67.102360 Z-0.012500
G01 X68.593296 Y64.273380 Z-0.012500
G01 X68.138147 Y61.710890 Z-0.012500
G01 X69.262674 Y60.918250 Z-0.012500
G01 X70.730362 Y57.313290 Z-0.012500
G01 X67.975915 Y55.595880 Z-0.012500
G01 X67.092257 Y54.867290 Z-0.012500
G01 X59.678923 Y44.697040 Z-0.012500
G01 X56.622557 Y43.744840 Z-0.012500
G01 X55.612325 Y43.020560 Z-0.012500
G01 X57.570562 Y39.550040 Z-0.012500
G01 X58.510439 Y31.782390 Z-0.012500
G01 X62.100840 Y9.205580 Z-0.012500
G01 X61.552507 Y8.808700 Z-0.012500
G01 X59.314028 Y15.245930 Z-0.012500
G01 X57.319068 Y31.253230 Z-0.012500
G01 X55.523227 Y40.866660 Z-0.012500
G01 X51.699000 Y43.545140 Z-0.012500
G01 X50.045355 Y43.714920 Z-0.012500
G01 X50.044255 Y37.153340 Z-0.012500
G01 X48.156623 Y12.666250 Z-0.012500
G01 X46.960354 Y8.763640 Z-0.012500
G01 X46.341147 Y8.843040 Z-0.012500
G01 X46.986521 Y13.407100 Z-0.012500
G01 X48.981903 Y36.840870 Z-0.012500
G01 X48.987003 Y38.856590 Z-0.012500
G01 X47.039278 Y38.981590 Z-0.012500
G01 X41.237974 Y40.990200 Z-0.012500
G01 X41.204684 Y39.384350 Z-0.012500
G01 X41.082362 Y37.491280 Z-0.012500
G01 X41.476467 Y10.923080 Z-0.012500
G01 X41.655240 Y8.716840 Z-0.012500
G01 X41.021643 Y8.806440 Z-0.012500
G01 X40.057930 Y13.129340 Z-0.012500
G01 X39.715358 Y30.194960 Z-0.012500
G01 X38.377147 Y46.929860 Z-0.012500
G01 X36.012432 Y47.657460 Z-0.012500
G01 X27.571084 Y39.984550 Z-0.012500
G01 X19.495261 Y12.732460 Z-0.012500
G01 X18.189408 Y8.763710 Z-0.012500
G01 X17.596356 Y8.763710 Z-0.012500
G01 X18.221418 Y12.666320 Z-0.012500
G01 X18.221436 Y12.666280 Z-0.012500
G00 Z0.300000

(End cutting path id: path1426)


(Start cutting path id: path1426)
(Change tool to Default tool)

G00 Z0.300000
G00 X40.703708 Y14.248740

G01 Z-0.012500 F100.0(Penetrate)
G01 X40.571935 Y13.923050 Z-0.012500 F400.000000
G01 X40.693905 Y13.454990 Z-0.012500
G01 X40.703705 Y14.248740 Z-0.012500
G01 X40.703708 Y14.248740 Z-0.012500
G00 Z0.300000

(End cutting path id: path1426)


(Start cutting path id: path1426)
(Change tool to Default tool)

G00 Z0.300000
G00 X40.439124 Y19.540410

G01 Z-0.012500 F100.0(Penetrate)
G01 X40.307351 Y19.214710 Z-0.012500 F400.000000
G01 X40.429321 Y18.746660 Z-0.012500
G01 X40.439121 Y19.540410 Z-0.012500
G01 X40.439124 Y19.540410 Z-0.012500
G00 Z0.300000

(End cutting path id: path1426)


(Start cutting path id: path1426)
(Change tool to Default tool)

G00 Z0.300000
G00 X49.167760 Y26.540370

G01 Z-0.012500 F100.0(Penetrate)
G01 X49.007909 Y26.380510 Z-0.012500 F400.000000
G01 X49.146874 Y26.033250 Z-0.012500
G01 X49.167754 Y26.540370 Z-0.012500
G01 X49.167760 Y26.540370 Z-0.012500
G00 Z0.300000

(End cutting path id: path1426)


(Start cutting path id: path1426)
(Change tool to Default tool)

G00 Z0.300000
G00 X49.438733 Y31.580900

G01 Z-0.012500 F100.0(Penetrate)
G01 X49.318326 Y31.120960 Z-0.012500 F400.000000
G01 X49.433394 Y30.522570 Z-0.012500
G01 X49.438694 Y31.580900 Z-0.012500
G01 X49.438733 Y31.580900 Z-0.012500
G00 Z0.300000

(End cutting path id: path1426)


(Start cutting path id: path1426)
(Change tool to Default tool)

G00 Z0.300000
G00 X48.030324 Y41.851730

G01 Z-0.012500 F100.0(Penetrate)
G01 X48.722437 Y43.947370 Z-0.012500 F400.000000
G01 X47.862541 Y44.358630 Z-0.012500
G01 X41.683835 Y47.734520 Z-0.012500
G01 X39.782063 Y48.599520 Z-0.012500
G01 X39.996561 Y46.985420 Z-0.012500
G01 X40.663803 Y44.778940 Z-0.012500
G01 X42.383023 Y41.855220 Z-0.012500
G01 X47.038137 Y39.993370 Z-0.012500
G01 X48.030324 Y41.851730 Z-0.012500
G01 X48.030324 Y41.851730 Z-0.012500
G00 Z0.300000

(End cutting path id: path1426)


(Start cutting path id: path1426)
(Change tool to Default tool)

G00 Z0.300000
G00 X49.283901 Y42.279770

G01 Z-0.012500 F100.0(Penetrate)
G01 X49.151999 Y41.979110 Z-0.012500 F400.000000
G01 X49.440834 Y41.673040 Z-0.012500
G01 X49.283901 Y42.279770 Z-0.012500
G01 X49.283901 Y42.279770 Z-0.012500
G00 Z0.300000

(End cutting path id: path1426)


(Start cutting path id: path1426)
(Change tool to Default tool)

G00 Z0.300000
G00 X57.126659 Y45.124050

G01 Z-0.012500 F100.0(Penetrate)
G01 X65.885740 Y55.460350 Z-0.012500 F400.000000
G01 X67.341382 Y56.698770 Z-0.012500
G01 X68.666035 Y59.750830 Z-0.012500
G01 X66.746631 Y62.118320 Z-0.012500
G01 X68.037019 Y68.911090 Z-0.012500
G01 X67.455457 Y69.589800 Z-0.012500
G01 X65.513686 Y69.258890 Z-0.012500
G01 X64.153479 Y69.239190 Z-0.012500
G01 X64.406066 Y68.244070 Z-0.012500
G01 X60.415080 Y64.720720 Z-0.012500
G01 X57.453687 Y70.121220 Z-0.012500
G01 X57.936392 Y70.676130 Z-0.012500
G01 X59.145350 Y69.103020 Z-0.012500
G01 X63.000628 Y65.896240 Z-0.012500
G01 X62.328343 Y70.702320 Z-0.012500
G01 X61.522086 Y73.993770 Z-0.012500
G01 X61.042860 Y75.493830 Z-0.012500
G01 X60.094390 Y78.053930 Z-0.012500
G01 X60.363320 Y83.374670 Z-0.012500
G01 X59.826851 Y83.905300 Z-0.012500
G01 X58.480696 Y84.186650 Z-0.012500
G01 X58.537736 Y83.326750 Z-0.012500
G01 X58.938172 Y77.219970 Z-0.012500
G01 X54.410979 Y72.492060 Z-0.012500
G01 X47.546849 Y72.785520 Z-0.012500
G01 X43.582044 Y79.671960 Z-0.012500
G01 X45.342547 Y84.865450 Z-0.012500
G01 X53.874386 Y86.824020 Z-0.012500
G01 X55.007967 Y86.663050 Z-0.012500
G01 X50.045355 Y90.233970 Z-0.012500
G01 X46.579440 Y89.995530 Z-0.012500
G01 X43.410420 Y89.970330 Z-0.012500
G01 X45.189211 Y94.494110 Z-0.012500
G01 X48.457855 Y95.124870 Z-0.012500
G01 X57.780228 Y90.309040 Z-0.012500
G01 X62.613062 Y89.755070 Z-0.012500
G01 X65.192750 Y91.638480 Z-0.012500
G01 X66.449520 Y92.543570 Z-0.012500
G01 X65.726726 Y94.174520 Z-0.012500
G01 X59.777055 Y100.000010 Z-0.012500
G01 X41.498975 Y96.992460 Z-0.012500
G01 X36.987494 Y89.364930 Z-0.012500
G01 X35.452515 Y77.687550 Z-0.012500
G01 X35.378875 Y72.726620 Z-0.012500
G01 X35.550352 Y70.146930 Z-0.012500
G01 X36.456157 Y70.146930 Z-0.012500
G01 X37.524504 Y69.723350 Z-0.012500
G01 X36.207736 Y68.828060 Z-0.012500
G01 X32.433277 Y65.517630 Z-0.012500
G01 X34.336170 Y61.659540 Z-0.012500
G01 X36.610853 Y60.921960 Z-0.012500
G01 X37.532262 Y59.804920 Z-0.012500
G01 X36.883855 Y59.509490 Z-0.012500
G01 X37.409165 Y57.750610 Z-0.012500
G01 X42.910899 Y48.341890 Z-0.012500
G01 X57.126659 Y45.123980 Z-0.012500
G01 X57.126659 Y45.124050 Z-0.012500
G00 Z0.300000

(End cutting path id: path1426)


(Start cutting path id: path1426)
(Change tool to Default tool)

G00 Z0.300000
G00 X53.021916 Y51.272230

G01 Z-0.012500 F100.0(Penetrate)
G01 X53.154208 Y53.529320 Z-0.012500 F400.000000
G01 X55.337020 Y52.799400 Z-0.012500
G01 X53.021916 Y51.272230 Z-0.012500
G01 X53.021916 Y51.272230 Z-0.012500
G00 Z0.300000

(End cutting path id: path1426)


(Start cutting path id: path1426)
(Change tool to Default tool)

G00 Z0.300000
G00 X55.875495 Y52.402530

G01 Z-0.012500 F100.0(Penetrate)
G01 X55.601603 Y54.538090 Z-0.012500 F400.000000
G01 X55.180784 Y56.582710 Z-0.012500
G01 X54.863188 Y57.887730 Z-0.012500
G01 X54.556404 Y58.657770 Z-0.012500
G01 X52.691187 Y58.370090 Z-0.012500
G01 X49.149109 Y57.689490 Z-0.012500
G01 X46.076604 Y57.701290 Z-0.012500
G01 X51.219416 Y59.482780 Z-0.012500
G01 X67.060482 Y59.741060 Z-0.012500
G01 X68.515563 Y58.947310 Z-0.012500
G01 X67.904601 Y58.420840 Z-0.012500
G01 X65.220144 Y58.648290 Z-0.012500
G01 X63.064726 Y58.827900 Z-0.012500
G01 X62.890043 Y58.032570 Z-0.012500
G01 X60.586631 Y55.898100 Z-0.012500
G01 X59.168139 Y54.754710 Z-0.012500
G01 X57.560779 Y52.191950 Z-0.012500
G01 X55.875495 Y52.402480 Z-0.012500
G01 X55.875495 Y52.402530 Z-0.012500
G00 Z0.300000

(End cutting path id: path1426)


(Start cutting path id: path1426)
(Change tool to Default tool)

G00 Z0.300000
G00 X57.885479 Y54.867320

G01 Z-0.012500 F100.0(Penetrate)
G01 X59.969144 Y57.050130 Z-0.012500 F400.000000
G01 X61.639276 Y58.439190 Z-0.012500
G01 X60.287141 Y59.034510 Z-0.012500
G01 X56.245922 Y58.186750 Z-0.012500
G01 X56.503798 Y57.208770 Z-0.012500
G01 X56.924520 Y55.111070 Z-0.012500
G01 X57.155959 Y53.478260 Z-0.012500
G01 X57.885479 Y54.867320 Z-0.012500
G01 X57.885479 Y54.867320 Z-0.012500
G00 Z0.300000

(End cutting path id: path1426)


(Start cutting path id: path1426)
(Change tool to Default tool)

G00 Z0.300000
G00 X55.512248 Y58.042320

G01 Z-0.012500 F100.0(Penetrate)
G01 X55.378795 Y57.711590 Z-0.012500 F400.000000
G01 X55.512248 Y57.380860 Z-0.012500
G01 X55.512248 Y58.042320 Z-0.012500
G01 X55.512248 Y58.042320 Z-0.012500
G00 Z0.300000

(End cutting path id: path1426)


(Start cutting path id: path1426)
(Change tool to Default tool)

G00 Z0.300000
G00 X53.942446 Y59.194360

G01 Z-0.012500 F100.0(Penetrate)
G01 X53.435327 Y59.215260 Z-0.012500 F400.000000
G01 X53.595181 Y59.055410 Z-0.012500
G01 X53.942446 Y59.194380 Z-0.012500
G01 X53.942446 Y59.194360 Z-0.012500
G00 Z0.300000

(End cutting path id: path1426)


(Start cutting path id: path1426)
(Change tool to Default tool)

G00 Z0.300000
G00 X63.732029 Y59.458940

G01 Z-0.012500 F100.0(Penetrate)
G01 X63.224910 Y59.479840 Z-0.012500 F400.000000
G01 X63.384764 Y59.319990 Z-0.012500
G01 X63.732029 Y59.458950 Z-0.012500
G01 X63.732029 Y59.458940 Z-0.012500
G00 Z0.300000

(End cutting path id: path1426)


(Start cutting path id: path1426)
(Change tool to Default tool)

G00 Z0.300000
G00 X60.417020 Y53.002010

G01 Z-0.012500 F100.0(Penetrate)
G01 X60.099520 Y54.051030 Z-0.012500 F400.000000
G01 X61.843955 Y55.215500 Z-0.012500
G01 X61.892735 Y53.096380 Z-0.012500
G01 X60.417024 Y53.001980 Z-0.012500
G01 X60.417020 Y53.002010 Z-0.012500
G00 Z0.300000

(End cutting path id: path1426)


(Start cutting path id: path1426)
(Change tool to Default tool)

G00 Z0.300000
G00 X44.835258 Y55.068300

G01 Z-0.012500 F100.0(Penetrate)
G01 X43.505126 Y57.727080 Z-0.012500 F400.000000
G01 X45.693193 Y60.622010 Z-0.012500
G01 X45.547437 Y59.034510 Z-0.012500
G01 X45.265460 Y56.397980 Z-0.012500
G01 X47.329210 Y56.124090 Z-0.012500
G01 X49.212911 Y55.151420 Z-0.012500
G01 X44.835258 Y55.068320 Z-0.012500
G01 X44.835258 Y55.068300 Z-0.012500
G00 Z0.300000

(End cutting path id: path1426)


(Start cutting path id: path1426)
(Change tool to Default tool)

G00 Z0.300000
G00 X46.393059 Y69.326070

G01 Z-0.012500 F100.0(Penetrate)
G01 X43.430771 Y71.916300 Z-0.012500 F400.000000
G01 X44.773713 Y71.830900 Z-0.012500
G01 X50.546924 Y70.183760 Z-0.012500
G01 X53.352645 Y69.882460 Z-0.012500
G01 X46.393059 Y69.326110 Z-0.012500
G01 X46.393059 Y69.326070 Z-0.012500
G00 Z0.300000

(End cutting path id: path1426)


(Start cutting path id: path1426)
(Change tool to Default tool)

G00 Z0.300000
G00 X59.775897 Y91.564320

G01 Z-0.012500 F100.0(Penetrate)
G01 X56.204023 Y93.758360 Z-0.012500 F400.000000
G01 X50.791317 Y96.340750 Z-0.012500
G01 X50.072944 Y97.437180 Z-0.012500
G01 X53.816513 Y96.837980 Z-0.012500
G01 X57.288314 Y94.589860 Z-0.012500
G01 X62.227386 Y93.132200 Z-0.012500
G01 X63.755942 Y93.126200 Z-0.012500
G01 X59.775897 Y91.564370 Z-0.012500
G01 X59.775897 Y91.564320 Z-0.012500
G00 Z0.300000

(End cutting path id: path1426)


(Start cutting path id: path1426)
(Change tool to Default tool)

G00 Z0.300000
G00 X42.372437 Y48.013290

G01 Z-0.012500 F100.0(Penetrate)
G01 X41.777125 Y48.608600 Z-0.012500 F400.000000
G01 X41.181812 Y49.112630 Z-0.012500
G01 X41.685841 Y48.517320 Z-0.012500
G01 X42.372437 Y48.013290 Z-0.012500
G01 X42.372437 Y48.013290 Z-0.012500
G00 Z0.300000

(End cutting path id: path1426)


(Start cutting path id: path1426)
(Change tool to Default tool)

G00 Z0.300000
G00 X36.093619 Y48.360140

G01 Z-0.012500 F100.0(Penetrate)
G01 X35.299869 Y48.370140 Z-0.012500 F400.000000
G01 X35.625563 Y48.238360 Z-0.012500
G01 X36.093619 Y48.360330 Z-0.012500
G01 X36.093619 Y48.360140 Z-0.012500
G00 Z0.300000

(End cutting path id: path1426)


(Start cutting path id: path1426)
(Change tool to Default tool)

G00 Z0.300000
G00 X36.640972 Y52.807950

G01 Z-0.012500 F100.0(Penetrate)
G01 X37.478648 Y53.689950 Z-0.012500 F400.000000
G01 X35.757854 Y59.149080 Z-0.012500
G01 X34.633375 Y60.072890 Z-0.012500
G01 X31.518795 Y63.135550 Z-0.012500
G01 X31.634598 Y67.193630 Z-0.012500
G01 X33.070376 Y68.863680 Z-0.012500
G01 X34.100941 Y69.750130 Z-0.012500
G01 X34.255271 Y75.306380 Z-0.012500
G01 X34.685025 Y82.152390 Z-0.012500
G01 X35.228283 Y86.282300 Z-0.012500
G01 X37.739794 Y94.219930 Z-0.012500
G01 X47.526235 Y102.075680 Z-0.012500
G01 X57.166196 Y102.325070 Z-0.012500
G01 X66.846511 Y94.694220 Z-0.012500
G01 X68.203358 Y92.908280 Z-0.012500
G01 X69.054692 Y93.628780 Z-0.012500
G01 X72.677414 Y103.532680 Z-0.012500
G01 X73.027950 Y104.506900 Z-0.012500
G01 X70.487434 Y103.587270 Z-0.012500
G01 X64.002843 Y101.928360 Z-0.012500
G01 X63.730233 Y104.149200 Z-0.012500
G01 X63.550300 Y108.976180 Z-0.012500
G01 X61.089143 Y119.574210 Z-0.012500
G01 X60.715718 Y120.450370 Z-0.012500
G01 X58.310976 Y115.076290 Z-0.012500
G01 X54.443699 Y106.064190 Z-0.012500
G01 X52.829103 Y106.806060 Z-0.012500
G01 X45.095330 Y115.463270 Z-0.012500
G01 X35.873777 Y122.995790 Z-0.012500
G01 X37.090851 Y114.729300 Z-0.012500
G01 X37.508570 Y108.511590 Z-0.012500
G01 X36.606052 Y102.639370 Z-0.012500
G01 X23.197575 Y103.733880 Z-0.012500
G01 X22.040338 Y103.878100 Z-0.012500
G01 X24.323908 Y99.990110 Z-0.012500
G01 X30.145851 Y89.892250 Z-0.012500
G01 X28.704952 Y89.039080 Z-0.012500
G01 X21.369401 Y85.901460 Z-0.012500
G01 X15.126990 Y83.111590 Z-0.012500
G01 X19.816709 Y80.270310 Z-0.012500
G01 X27.158896 Y76.829010 Z-0.012500
G01 X28.156963 Y73.528200 Z-0.012500
G01 X23.107237 Y70.559600 Z-0.012500
G01 X19.606685 Y68.731440 Z-0.012500
G01 X21.309594 Y67.785580 Z-0.012500
G01 X27.003929 Y64.862380 Z-0.012500
G01 X29.000449 Y59.569610 Z-0.012500
G01 X27.005544 Y57.519660 Z-0.012500
G01 X28.008262 Y57.353950 Z-0.012500
G01 X32.087437 Y57.185330 Z-0.012500
G01 X35.617841 Y55.806060 Z-0.012500
G01 X33.433525 Y51.945940 Z-0.012500
G01 X33.036792 Y51.339660 Z-0.012500
G01 X34.331177 Y51.857690 Z-0.012500
G01 X36.640972 Y52.807950 Z-0.012500
G01 X36.640972 Y52.807950 Z-0.012500
G00 Z0.300000

(End cutting path id: path1426)


(Start cutting path id: path1426)
(Change tool to Default tool)

G00 Z0.300000
G00 X30.003167 Y56.563900

G01 Z-0.012500 F100.0(Penetrate)
G01 X29.341709 Y56.563900 Z-0.012500 F400.000000
G01 X29.672438 Y56.430450 Z-0.012500
G01 X30.003167 Y56.563900 Z-0.012500
G01 X30.003167 Y56.563900 Z-0.012500
G00 Z0.300000

(End cutting path id: path1426)


(Start cutting path id: path1426)
(Change tool to Default tool)

G00 Z0.300000
G00 X29.672438 Y61.073970

G01 Z-0.012500 F100.0(Penetrate)
G01 X28.338464 Y59.894400 Z-0.012500 F400.000000
G01 X27.158896 Y58.637630 Z-0.012500
G01 X28.415667 Y59.817200 Z-0.012500
G01 X29.672438 Y61.073970 Z-0.012500
G01 X29.672438 Y61.073970 Z-0.012500
G00 Z0.300000

(End cutting path id: path1426)


(Start cutting path id: path1426)
(Change tool to Default tool)

G00 Z0.300000
G00 X63.978915 Y67.302730

G01 Z-0.012500 F100.0(Penetrate)
G01 X63.845461 Y66.972000 Z-0.012500 F400.000000
G01 X63.978915 Y66.641280 Z-0.012500
G01 X63.978915 Y67.302730 Z-0.012500
G01 X63.978915 Y67.302730 Z-0.012500
G00 Z0.300000

(End cutting path id: path1426)


(Start cutting path id: path1426)
(Change tool to Default tool)

G00 Z0.300000
G00 X71.832832 Y70.348870

G01 Z-0.012500 F100.0(Penetrate)
G01 X70.822280 Y71.788380 Z-0.012500 F400.000000
G01 X69.693083 Y73.032890 Z-0.012500
G01 X69.526510 Y71.817600 Z-0.012500
G01 X69.359936 Y69.568200 Z-0.012500
G01 X69.359936 Y68.534080 Z-0.012500
G01 X70.537062 Y69.343970 Z-0.012500
G01 X71.832832 Y70.348870 Z-0.012500
G01 X71.832832 Y70.348870 Z-0.012500
G00 Z0.300000

(End cutting path id: path1426)


(Start cutting path id: path1426)
(Change tool to Default tool)

G00 Z0.300000
G00 X68.741414 Y69.683980

G01 Z-0.012500 F100.0(Penetrate)
G01 X68.607961 Y69.353250 Z-0.012500 F400.000000
G01 X68.741414 Y69.022530 Z-0.012500
G01 X68.741414 Y69.683980 Z-0.012500
G01 X68.741414 Y69.683980 Z-0.012500
G00 Z0.300000

(End cutting path id: path1426)


(Start cutting path id: path1426)
(Change tool to Default tool)

G00 Z0.300000
G00 X71.873478 Y69.617880

G01 Z-0.012500 F100.0(Penetrate)
G01 X72.220076 Y70.147040 Z-0.012500 F400.000000
G01 X71.608894 Y69.617880 Z-0.012500
G01 X71.262295 Y69.088710 Z-0.012500
G01 X71.873478 Y69.617880 Z-0.012500
G01 X71.873478 Y69.617880 Z-0.012500
G00 Z0.300000

(End cutting path id: path1426)


(Start cutting path id: path1426)
(Change tool to Default tool)

G00 Z0.300000
G00 X34.874749 Y71.006900

G01 Z-0.012500 F100.0(Penetrate)
G01 X34.741297 Y70.676170 Z-0.012500 F400.000000
G01 X34.874749 Y70.345440 Z-0.012500
G01 X34.874749 Y71.006900 Z-0.012500
G01 X34.874749 Y71.006900 Z-0.012500
G00 Z0.300000

(End cutting path id: path1426)


(Start cutting path id: path1426)
(Change tool to Default tool)

G00 Z0.300000
G00 X67.488914 Y71.150820

G01 Z-0.012500 F100.0(Penetrate)
G01 X68.247601 Y72.055600 Z-0.012500 F400.000000
G01 X67.056976 Y72.331840 Z-0.012500
G01 X64.327315 Y72.704860 Z-0.012500
G01 X62.866569 Y73.198950 Z-0.012500
G01 X63.383348 Y71.723810 Z-0.012500
G01 X63.900127 Y70.248660 Z-0.012500
G01 X65.354319 Y70.446000 Z-0.012500
G01 X67.488914 Y71.150820 Z-0.012500
G01 X67.488914 Y71.150820 Z-0.012500
G00 Z0.300000

(End cutting path id: path1426)


(Start cutting path id: path1426)
(Change tool to Default tool)

G00 Z0.300000
G00 X53.054118 Y73.456570

G01 Z-0.012500 F100.0(Penetrate)
G01 X55.125462 Y74.144130 Z-0.012500 F400.000000
G01 X55.040012 Y74.743810 Z-0.012500
G01 X54.681242 Y76.332600 Z-0.012500
G01 X56.099424 Y75.065170 Z-0.012500
G01 X56.395147 Y75.174090 Z-0.012500
G01 X55.398615 Y84.919860 Z-0.012500
G01 X49.089840 Y85.627950 Z-0.012500
G01 X44.831474 Y79.076590 Z-0.012500
G01 X49.531067 Y73.479410 Z-0.012500
G01 X53.054115 Y73.456610 Z-0.012500
G01 X53.054118 Y73.456570 Z-0.012500
G00 Z0.300000

(End cutting path id: path1426)


(Start cutting path id: path1426)
(Change tool to Default tool)

G00 Z0.300000
G00 X68.423266 Y73.894470

G01 Z-0.012500 F100.0(Penetrate)
G01 X68.645275 Y74.703710 Z-0.012500 F400.000000
G01 X68.472039 Y75.652600 Z-0.012500
G01 X70.114581 Y75.669000 Z-0.012500
G01 X70.336778 Y75.068340 Z-0.012500
G01 X70.796441 Y75.769870 Z-0.012500
G01 X71.630937 Y77.716880 Z-0.012500
G01 X68.214634 Y85.983000 Z-0.012500
G01 X64.319476 Y85.376160 Z-0.012500
G01 X62.494845 Y84.306690 Z-0.012500
G01 X61.157853 Y80.163970 Z-0.012500
G01 X64.597436 Y73.882510 Z-0.012500
G01 X68.423266 Y73.894510 Z-0.012500
G01 X68.423266 Y73.894470 Z-0.012500
G00 Z0.300000

(End cutting path id: path1426)


(Start cutting path id: path1426)
(Change tool to Default tool)

G00 Z0.300000
G00 X46.870354 Y73.942470

G01 Z-0.012500 F100.0(Penetrate)
G01 X46.275041 Y74.537780 Z-0.012500 F400.000000
G01 X45.679729 Y75.041810 Z-0.012500
G01 X46.183757 Y74.446490 Z-0.012500
G01 X46.870354 Y73.942470 Z-0.012500
G01 X46.870354 Y73.942470 Z-0.012500
G00 Z0.300000

(End cutting path id: path1426)


(Start cutting path id: path1426)
(Change tool to Default tool)

G00 Z0.300000
G00 X34.880262 Y78.134120

G01 Z-0.012500 F100.0(Penetrate)
G01 X34.720409 Y77.974270 Z-0.012500 F400.000000
G01 X34.859373 Y77.627010 Z-0.012500
G01 X34.880263 Y78.134120 Z-0.012500
G01 X34.880262 Y78.134120 Z-0.012500
G00 Z0.300000

(End cutting path id: path1426)


(Start cutting path id: path1426)
(Change tool to Default tool)

G00 Z0.300000
G00 X44.147066 Y80.264240

G01 Z-0.012500 F100.0(Penetrate)
G01 X44.026660 Y79.804310 Z-0.012500 F400.000000
G01 X44.141727 Y79.205910 Z-0.012500
G01 X44.147027 Y80.264240 Z-0.012500
G01 X44.147066 Y80.264240 Z-0.012500
G00 Z0.300000

(End cutting path id: path1426)


(Start cutting path id: path1426)
(Change tool to Default tool)

G00 Z0.300000
G00 X60.551232 Y80.793410

G01 Z-0.012500 F100.0(Penetrate)
G01 X60.430826 Y80.333470 Z-0.012500 F400.000000
G01 X60.545893 Y79.735080 Z-0.012500
G01 X60.551193 Y80.793410 Z-0.012500
G01 X60.551232 Y80.793410 Z-0.012500
G00 Z0.300000

(End cutting path id: path1426)


(Start cutting path id: path1426)
(Change tool to Default tool)

G00 Z0.300000
G00 X62.348478 Y85.745540

G01 Z-0.012500 F100.0(Penetrate)
G01 X64.632660 Y87.260440 Z-0.012500 F400.000000
G01 X68.356895 Y89.599220 Z-0.012500
G01 X69.368987 Y91.032190 Z-0.012500
G01 X68.342875 Y91.578260 Z-0.012500
G01 X63.291403 Y88.681980 Z-0.012500
G01 X60.135098 Y87.080350 Z-0.012500
G01 X56.646594 Y89.597990 Z-0.012500
G01 X48.287772 Y93.827220 Z-0.012500
G01 X45.239499 Y93.020890 Z-0.012500
G01 X44.508027 Y90.712200 Z-0.012500
G01 X46.076741 Y91.212530 Z-0.012500
G01 X55.337020 Y88.106900 Z-0.012500
G01 X62.348478 Y85.745540 Z-0.012500
G01 X62.348478 Y85.745540 Z-0.012500
G00 Z0.300000

(End cutting path id: path1426)


(Start cutting path id: path1426)
(Change tool to Default tool)

G00 Z0.300000
G00 X73.841988 Y86.336880

G01 Z-0.012500 F100.0(Penetrate)
G01 X75.465781 Y87.710070 Z-0.012500 F400.000000
G01 X74.198795 Y88.036740 Z-0.012500
G01 X71.755286 Y88.865770 Z-0.012500
G01 X69.708689 Y88.819570 Z-0.012500
G01 X69.653969 Y86.887560 Z-0.012500
G01 X71.109177 Y85.794630 Z-0.012500
G01 X72.045839 Y84.997730 Z-0.012500
G01 X73.841992 Y86.336900 Z-0.012500
G01 X73.841988 Y86.336880 Z-0.012500
G00 Z0.300000

(End cutting path id: path1426)


(Start cutting path id: path1426)
(Change tool to Default tool)

G00 Z0.300000
G00 X35.938595 Y87.129960

G01 Z-0.012500 F100.0(Penetrate)
G01 X35.778742 Y86.970100 Z-0.012500 F400.000000
G01 X35.917707 Y86.622840 Z-0.012500
G01 X35.938597 Y87.129960 Z-0.012500
G01 X35.938595 Y87.129960 Z-0.012500
G00 Z0.300000

(End cutting path id: path1426)


(Start cutting path id: path1426)
(Change tool to Default tool)

G00 Z0.300000
G00 X43.346927 Y91.627870

G01 Z-0.012500 F100.0(Penetrate)
G01 X43.187076 Y91.468020 Z-0.012500 F400.000000
G01 X43.326041 Y91.120750 Z-0.012500
G01 X43.346921 Y91.627870 Z-0.012500
G01 X43.346927 Y91.627870 Z-0.012500
G00 Z0.300000

(End cutting path id: path1426)


(Start cutting path id: path1426)
(Change tool to Default tool)

G00 Z0.300000
G00 X48.920874 Y94.671070

G01 Z-0.012500 F100.0(Penetrate)
G01 X47.994833 Y94.671070 Z-0.012500 F400.000000
G01 X48.457854 Y94.550060 Z-0.012500
G01 X48.920874 Y94.671070 Z-0.012500
G01 X48.920874 Y94.671070 Z-0.012500
G00 Z0.300000

(End cutting path id: path1426)


(Start cutting path id: path1426)
(Change tool to Default tool)

G00 Z0.300000
G00 X64.332853 Y97.485270

G01 Z-0.012500 F100.0(Penetrate)
G01 X63.605249 Y98.212870 Z-0.012500 F400.000000
G01 X62.877645 Y98.854310 Z-0.012500
G01 X63.519077 Y98.126700 Z-0.012500
G01 X64.332853 Y97.485270 Z-0.012500
G01 X64.332853 Y97.485270 Z-0.012500
G00 Z0.300000

(End cutting path id: path1426)


(Start cutting path id: path1426)
(Change tool to Default tool)

G00 Z0.300000
G00 X36.991416 Y108.577730

G01 Z-0.012500 F100.0(Penetrate)
G01 X36.857964 Y108.247000 Z-0.012500 F400.000000
G01 X36.991416 Y107.916270 Z-0.012500
G01 X36.991416 Y108.577730 Z-0.012500
G01 X36.991416 Y108.577730 Z-0.012500
G00 Z0.300000

(End cutting path id: path1426)


(Start cutting path id: path1426)
(Change tool to Default tool)

G00 Z0.300000
G00 X36.996916 Y110.942450

G01 Z-0.012500 F100.0(Penetrate)
G01 X36.837064 Y110.782590 Z-0.012500 F400.000000
G01 X36.976028 Y110.435330 Z-0.012500
G01 X36.996918 Y110.942450 Z-0.012500
G01 X36.996916 Y110.942450 Z-0.012500
G00 Z0.300000

(End cutting path id: path1426)


(Start cutting path id: path1426)
(Change tool to Default tool)

G00 Z0.300000
G00 X47.664093 Y113.883640

G01 Z-0.012500 F100.0(Penetrate)
G01 X46.671905 Y114.875830 Z-0.012500 F400.000000
G01 X45.679718 Y115.787630 Z-0.012500
G01 X46.591517 Y114.795440 Z-0.012500
G01 X47.664093 Y113.883640 Z-0.012500
G01 X47.664093 Y113.883640 Z-0.012500
G00 Z0.300000

(End cutting path id: path1426)


(Start cutting path id: path1426)
(Change tool to Default tool)

G00 Z0.300000
G00 X44.224510 Y117.078150

G01 Z-0.012500 F100.0(Penetrate)
G01 X43.761489 Y117.541170 Z-0.012500 F400.000000
G01 X43.661589 Y117.441270 Z-0.012500
G01 X44.224506 Y117.078150 Z-0.012500
G01 X44.224510 Y117.078150 Z-0.012500
G00 Z0.300000

(End cutting path id: path1426)


(Start cutting path id: path1426)
(Change tool to Default tool)

G00 Z0.300000
G00 X24.557160 Y8.940060

G01 Z-0.012500 F100.0(Penetrate)
G01 X24.390680 Y10.593710 Z-0.012500 F400.000000
G01 X24.400580 Y12.070960 Z-0.012500
G01 X26.507338 Y13.736870 Z-0.012500
G01 X28.614097 Y15.402770 Z-0.012500
G01 X28.614097 Y18.355580 Z-0.012500
G01 X28.614097 Y21.308390 Z-0.012500
G01 X27.516773 Y22.872740 Z-0.012500
G01 X26.419449 Y24.437080 Z-0.012500
G01 X27.510772 Y26.720690 Z-0.012500
G01 X28.875235 Y33.369920 Z-0.012500
G01 X29.999136 Y40.249090 Z-0.012500
G01 X30.386038 Y37.933980 Z-0.012500
G01 X29.894817 Y16.877800 Z-0.012500
G01 X30.378218 Y9.888150 Z-0.012500
G01 X29.864251 Y8.763670 Z-0.012500
G01 X29.004512 Y11.273050 Z-0.012500
G01 X28.816376 Y13.782420 Z-0.012500
G01 X27.987632 Y13.214860 Z-0.012500
G01 X25.703680 Y10.037090 Z-0.012500
G01 X25.218611 Y8.763670 Z-0.012500
G01 X24.557152 Y8.940060 Z-0.012500
G01 X24.557160 Y8.940060 Z-0.012500
G00 Z0.300000

(End cutting path id: path1426)


(Start cutting path id: path1426)
(Change tool to Default tool)

G00 Z0.300000
G00 X29.326625 Y16.365410

G01 Z-0.012500 F100.0(Penetrate)
G01 X29.194851 Y16.039710 Z-0.012500 F400.000000
G01 X29.316821 Y15.571660 Z-0.012500
G01 X29.326621 Y16.365410 Z-0.012500
G01 X29.326625 Y16.365410 Z-0.012500
G00 Z0.300000

(End cutting path id: path1426)


(Start cutting path id: path1426)
(Change tool to Default tool)

G00 Z0.300000
G00 X28.602171 Y24.837110

G01 Z-0.012500 F100.0(Penetrate)
G01 X28.590241 Y26.093880 Z-0.012500 F400.000000
G01 X28.248445 Y25.300130 Z-0.012500
G01 X28.191735 Y24.043360 Z-0.012500
G01 X28.545466 Y23.580340 Z-0.012500
G01 X28.602176 Y24.837110 Z-0.012500
G01 X28.602171 Y24.837110 Z-0.012500
G00 Z0.300000

(End cutting path id: path1426)


(Start cutting path id: path1426)
(Change tool to Default tool)

G00 Z0.300000
G00 X28.912437 Y27.482940

G01 Z-0.012500 F100.0(Penetrate)
G01 X28.812537 Y27.582840 Z-0.012500 F400.000000
G01 X28.349516 Y27.119820 Z-0.012500
G01 X28.912432 Y27.482940 Z-0.012500
G01 X28.912437 Y27.482940 Z-0.012500
G00 Z0.300000

(End cutting path id: path1426)


(Start cutting path id: path1426)
(Change tool to Default tool)

G00 Z0.300000
G00 X29.326625 Y30.123740

G01 Z-0.012500 F100.0(Penetrate)
G01 X29.194851 Y29.798050 Z-0.012500 F400.000000
G01 X29.316821 Y29.329990 Z-0.012500
G01 X29.326621 Y30.123740 Z-0.012500
G01 X29.326625 Y30.123740 Z-0.012500
G00 Z0.300000

(End cutting path id: path1426)


(Start cutting path id: path1426)
(Change tool to Default tool)

G00 Z0.300000
G00 X29.588595 Y34.742450

G01 Z-0.012500 F100.0(Penetrate)
G01 X29.428743 Y34.582600 Z-0.012500 F400.000000
G01 X29.567707 Y34.235330 Z-0.012500
G01 X29.588597 Y34.742450 Z-0.012500
G01 X29.588595 Y34.742450 Z-0.012500
G00 Z0.300000

(End cutting path id: path1426)


(Start cutting path id: path1426)
(Change tool to Default tool)

G00 Z0.300000
G00 X50.609062 Y9.358990

G01 Z-0.012500 F100.0(Penetrate)
G01 X49.921306 Y11.289350 Z-0.012500 F400.000000
G01 X49.450496 Y12.624400 Z-0.012500
G01 X51.011189 Y14.199770 Z-0.012500
G01 X53.573136 Y17.012000 Z-0.012500
G01 X54.274763 Y19.361580 Z-0.012500
G01 X53.211998 Y25.697010 Z-0.012500
G01 X52.304287 Y30.327210 Z-0.012500
G01 X50.810277 Y41.279830 Z-0.012500
G01 X51.897437 Y40.278420 Z-0.012500
G01 X53.569849 Y30.475270 Z-0.012500
G01 X53.930913 Y29.300400 Z-0.012500
G01 X54.082554 Y30.430970 Z-0.012500
G01 X54.956078 Y31.680630 Z-0.012500
G01 X55.202146 Y29.332840 Z-0.012500
G01 X54.807832 Y25.834660 Z-0.012500
G01 X55.629570 Y19.041590 Z-0.012500
G01 X55.962400 Y17.810130 Z-0.012500
G01 X54.636679 Y16.263460 Z-0.012500
G01 X53.135904 Y14.415450 Z-0.012500
G01 X52.106730 Y9.491280 Z-0.012500
G01 X51.453749 Y8.763670 Z-0.012500
G01 X50.609062 Y9.358990 Z-0.012500
G01 X50.609062 Y9.358990 Z-0.012500
G00 Z0.300000

(End cutting path id: path1426)


(Start cutting path id: path1426)
(Change tool to Default tool)

G00 Z0.300000
G00 X51.402020 Y13.460030

G01 Z-0.012500 F100.0(Penetrate)
G01 X51.302120 Y13.559930 Z-0.012500 F400.000000
G01 X50.839100 Y13.096910 Z-0.012500
G01 X51.402016 Y13.460040 Z-0.012500
G01 X51.402020 Y13.460030 Z-0.012500
G00 Z0.300000

(End cutting path id: path1426)


(Start cutting path id: path1426)
(Change tool to Default tool)

G00 Z0.300000
G00 X54.278687 Y26.506370

G01 Z-0.012500 F100.0(Penetrate)
G01 X54.014103 Y26.755340 Z-0.012500 F400.000000
G01 X53.749520 Y26.342850 Z-0.012500
G01 X54.014103 Y26.093880 Z-0.012500
G01 X54.278687 Y26.506370 Z-0.012500
G01 X54.278687 Y26.506370 Z-0.012500
G00 Z0.300000

(End cutting path id: path1426)


(Footer)
M5
G00 X0.0000 Y0.0000
M2
(Using default footer. To add your own footer create file "footer" in the output dir.)
(end)
%